app/assets/images/heroicon/mini/chevron-double-left.svg

<svg width="20" height="20" viewBox="0 0 20 20" fill="none" xmlns="http://www.w3.org/2000/svg">
<path fill-rule="evenodd" clip-rule="evenodd" d="M16.7906 16.7698C16.5035 17.0684 16.0287 17.0777 15.7302 16.7906L9.23017 10.5406C9.08311 10.3992 9 10.204 9 10C9 9.79599 9.08311 9.60078 9.23017 9.45938L15.7302 3.20937C16.0287 2.92228 16.5035 2.93159 16.7906 3.23017C17.0777 3.52875 17.0684 4.00353 16.7698 4.29062L10.8321 10L16.7698 15.7094C17.0684 15.9965 17.0777 16.4713 16.7906 16.7698ZM10.7906 16.7698C10.5035 17.0684 10.0287 17.0777 9.73017 16.7906L3.23017 10.5406C3.08311 10.3992 3 10.204 3 10C3 9.79599 3.08311 9.60078 3.23017 9.45938L9.73017 3.20938C10.0287 2.92228 10.5035 2.93159 10.7906 3.23017C11.0777 3.52875 11.0684 4.00353 10.7698 4.29062L4.83208 10L10.7698 15.7094C11.0684 15.9965 11.0777 16.4713 10.7906 16.7698Z" fill="#0F172A"/>
</svg>

<svg xmlns="http://www.w3.org/2000/svg" viewBox="0 0 20 20" fill="currentColor" aria-hidden="true">
  <path fill-rule="evenodd" d="M16.79 16.77a.75.75 0 01-1.06.02l-6.5-6.25a.75.75 0 010-1.08l6.5-6.25a.75.75 0 111.04 1.08L10.832 10l5.938 5.71a.75.75 0 01.02 1.06zm-6 0a.75.75 0 01-1.06.02l-6.5-6.25a.75.75 0 010-1.08l6.5-6.25a.75.75 0 111.04 1.08L4.832 10l5.938 5.71a.75.75 0 01.02 1.06z" clip-rule="evenodd"/>
</svg>
